americans/img/partner2.svg

<svg width="119" height="43" viewBox="0 0 119 43" fill="none" xmlns="http://www.w3.org/2000/svg">
<path fill-rule="evenodd" clip-rule="evenodd" d="M44.4924 12.1508C39.068 18.4196 34.5707 23.656 34.4985 23.7875C34.4259 23.9187 36.2402 24.0263 38.5299 24.0263H42.6931L44.0809 22.3405L45.4688 20.6547H49.4347H53.4006L53.2858 18.126L53.1714 15.5972L51.5303 15.444L49.8888 15.2907L51.9248 12.6164C53.0444 11.1455 54.0602 9.93874 54.1825 9.93445C54.3044 9.93016 54.3975 10.5128 54.3892 11.2295C54.3806 11.9458 54.4137 15.1185 54.463 18.2792L54.5522 24.0263H58.2013L61.8504 24.0266L61.7427 12.3789L61.6346 0.731445L57.995 0.74248L54.3549 0.753208L44.4924 12.1508ZM63.2312 16.6342V28.3175L66.8803 28.3178H70.5295L70.4194 19.2757L70.3093 10.2333H72.4684C74.1774 10.2333 74.8567 10.3862 75.7258 10.9671C78.1658 12.5977 76.5468 15.7505 73.2689 15.7505H71.9102V18.2026V20.6547H75.3834C78.5299 20.6547 79.0246 20.5719 80.6417 19.7753C84.7666 17.7425 85.754 11.8667 82.5479 8.42825C81.7917 7.61692 80.5604 6.89386 78.769 6.2085C76.1472 5.2059 76.0257 5.19057 69.6714 5.07134L63.2312 4.95057V16.6342ZM3.87414 34.3548C3.71871 34.6589 2.81609 36.5973 1.86811 38.6622L0.144531 42.417H1.42193C2.47919 42.417 2.77664 42.2585 3.14629 41.4975C3.55499 40.6564 3.75027 40.5779 5.43676 40.5779C7.12326 40.5779 7.31854 40.6564 7.72724 41.4975C8.09728 42.2591 8.39394 42.417 9.45476 42.417H10.7357L8.8279 38.2025L6.92009 33.9879L5.53815 33.8951C4.50219 33.8255 4.0856 33.9407 3.87414 34.3548ZM44.2951 34.601C44.2951 35.214 44.4924 35.3672 45.2814 35.3672C46.0704 35.3672 46.2676 35.214 46.2676 34.601C46.2676 33.9879 46.0704 33.8347 45.2814 33.8347C44.4924 33.8347 44.2951 33.9879 44.2951 34.601ZM73.4882 35.2247C73.4882 36.5041 73.4275 36.5896 72.7252 36.2975C71.8589 35.9373 70.3243 35.8843 69.3321 36.1801C68.9637 36.2898 68.3317 36.9452 67.9277 37.636C67.3624 38.6034 67.1916 38.7303 67.1849 38.1887C67.1801 37.8015 66.7403 37.1465 66.2077 36.7327C65.0013 35.7954 62.2082 35.686 60.8764 36.524C59.2664 37.5367 59.1599 40.5099 60.6859 41.8205C62.1065 43.0398 65.8653 42.8277 66.7967 41.4757C67.3596 40.6585 67.2874 40.5779 65.9927 40.5779C65.3418 40.5779 64.8092 40.7159 64.8092 40.8844C64.8092 41.4622 62.4903 41.2204 62.0615 40.5982C61.837 40.272 61.6532 39.9272 61.6532 39.8319C61.6532 39.7366 62.94 39.6633 64.5133 39.6694L67.3734 39.6805L68.1625 40.9721C69.1633 42.6104 70.6478 43.099 72.3367 42.3459C72.9702 42.0636 73.4882 41.964 73.4882 42.1249C73.4882 42.2855 73.932 42.417 74.4745 42.417H75.4607V38.1258V33.8347H74.4745C73.5675 33.8347 73.4882 33.9463 73.4882 35.2247ZM80.5892 38.1258V42.417H81.7727C82.9298 42.417 82.9562 42.383 82.9562 40.8844V39.3519H84.713C85.6791 39.3519 86.902 39.1986 87.4311 39.0117C89.4095 38.3113 89.8971 35.8279 88.2998 34.5872C87.4228 33.9055 87.0137 33.8347 83.9602 33.8347H80.5892V38.1258ZM55.9988 34.3456C55.854 34.4578 55.7357 34.8716 55.7357 35.2652C55.7357 35.6584 55.5581 35.9803 55.3412 35.9803C55.1242 35.9803 54.9467 36.2561 54.9467 36.5933C54.9467 36.9304 55.1242 37.2063 55.3412 37.2063C55.5641 37.2063 55.7357 38.0814 55.7357 39.2189C55.7357 40.3257 55.9085 41.4821 56.1199 41.789C56.5531 42.4182 58.1192 42.817 59.0578 42.5371C59.9379 42.2748 59.8318 41.4708 58.8917 41.2798C58.2064 41.1407 58.1027 40.8618 58.1027 39.1628C58.1027 37.4107 58.1851 37.2063 58.8917 37.2063C59.3505 37.2063 59.6807 37.0019 59.6807 36.7177C59.6807 36.4492 59.3256 36.1571 58.8917 36.0691C58.3327 35.9554 58.1027 35.6511 58.1027 35.0249C58.1027 34.3033 57.9338 34.1412 57.1823 34.1412C56.6758 34.1412 56.1432 34.2331 55.9988 34.3456ZM86.833 36.227C87.0235 37.271 86.2148 37.8193 84.4861 37.8193C82.961 37.8193 82.9562 37.8156 82.9562 36.5764V35.3335L84.8301 35.427C86.4436 35.5076 86.7217 35.6186 86.833 36.227ZM6.17961 37.5977C6.48101 38.3763 6.62974 39.0892 6.50981 39.1824C6.18632 39.4337 4.52389 39.3877 4.32506 39.122C4.11637 38.8425 5.21703 35.8604 5.45965 36.0489C5.55393 36.1225 5.87821 36.8195 6.17961 37.5977ZM11.946 36.5933C10.9728 37.3494 10.929 38.4838 11.8474 39.1281C12.2269 39.3945 13.3812 39.777 14.4117 39.9784C16.3692 40.3606 16.8706 41.0055 15.4772 41.3491C14.9979 41.4671 14.2661 41.3433 13.6791 41.0444C13.1351 40.7674 12.2246 40.5834 11.6565 40.6359L10.6233 40.7312L11.645 41.6507C12.5587 42.4731 12.9059 42.5703 14.9265 42.5703C16.914 42.5703 17.2813 42.4719 17.9697 41.7555L18.7528 40.9405L19.6546 41.7555C20.4341 42.4596 20.861 42.5703 22.7956 42.5703C24.6722 42.5703 25.1563 42.4532 25.7883 41.8466C27.3 40.3962 26.4566 39.1671 23.5582 38.5957C21.2752 38.1458 20.5773 37.2063 22.5266 37.2063C23.2027 37.2063 23.7925 37.4003 23.9239 37.6661C24.0485 37.9189 24.6001 38.1258 25.1496 38.1258C26.3706 38.1258 26.4629 37.4509 25.3591 36.5933C24.2091 35.6998 20.9513 35.7338 19.8514 36.6512C18.1626 38.0596 19.1177 39.3565 22.3017 39.9784C23.3475 40.1825 24.1756 40.5221 24.1756 40.7468C24.1756 41.4061 22.6485 41.594 21.6058 41.0631C21.0819 40.7962 20.2313 40.5779 19.7161 40.5779C19.105 40.5779 18.6261 40.3171 18.3397 39.8282C18.0407 39.3185 17.3574 38.9638 16.2051 38.7205C15.2729 38.5234 14.2886 38.3134 14.0172 38.2537C13.7461 38.1939 13.524 37.934 13.524 37.6756C13.524 37.0619 15.2381 37.0549 15.891 37.6661C16.1613 37.9189 16.8043 38.1258 17.3199 38.1258C18.4806 38.1258 18.548 37.4316 17.469 36.5933C16.8903 36.1436 16.1542 35.9803 14.7075 35.9803C13.2609 35.9803 12.5248 36.1436 11.946 36.5933ZM28.0902 36.8762C27.1158 37.6333 26.9371 38.0155 26.9371 39.3424C26.9371 40.5933 27.1304 41.0625 27.8894 41.6523C29.149 42.6309 30.613 42.8832 32.4936 42.4455C34.3241 42.0195 35.2216 40.8979 35.2216 39.0371C35.2216 37.1848 33.5896 35.9803 31.0793 35.9803C29.5763 35.9803 29.0342 36.1427 28.0902 36.8762ZM37.4529 36.3275C36.568 36.7272 35.6157 38.4106 35.6177 39.572C35.62 40.9844 36.9578 42.3548 38.5626 42.5886C40.7888 42.9132 43.1116 41.8968 43.1116 40.5982C43.1116 40.105 41.3052 40.2064 40.7446 40.7312C40.1533 41.2847 39.1051 41.327 38.4565 40.8231C37.7772 40.2953 37.8723 38.2558 38.6029 37.6878C39.4151 37.057 39.7935 37.0803 40.7446 37.8193C41.7794 38.6233 43.1116 38.63 43.1116 37.8313C43.1116 36.8287 41.5758 35.979 39.7824 35.9895C38.9015 35.9947 37.8529 36.1467 37.4529 36.3275ZM44.2951 39.1986V42.417H45.2814H46.2676V39.1986V35.9803H45.2814H44.2951V39.1986ZM48.2401 36.5933C47.8062 36.9304 47.4511 37.4132 47.4511 37.6661C47.4511 38.2705 48.9132 38.2598 49.6982 37.6498C50.4667 37.0527 51.9382 37.1901 52.1062 37.8745C52.2041 38.2748 51.821 38.4373 50.3807 38.6049C48.1837 38.8609 47.0566 39.628 47.0566 40.867C47.0566 41.8591 48.2504 42.7235 49.6209 42.7235C50.0667 42.7235 50.8261 42.5086 51.3082 42.2463C51.7997 41.979 52.1852 41.9116 52.1852 42.093C52.1852 42.2711 52.8128 42.417 53.5797 42.417C54.8362 42.417 54.934 42.3585 54.566 41.8242C54.3415 41.4981 54.1577 40.1926 54.1577 38.9231C54.1577 36.257 53.8448 35.9803 50.8304 35.9803C49.555 35.9803 48.7988 36.1593 48.2401 36.5933ZM90.0573 39.1986V42.417H91.2408H92.4243V40.2447C92.4243 38.1127 92.446 38.0661 93.6078 37.7255C94.4461 37.4797 94.7913 37.1747 94.7913 36.6794C94.7913 35.8408 93.803 35.7479 92.7513 36.4875C92.0799 36.9596 92.0298 36.9596 92.0298 36.4875C92.0298 36.1507 91.6984 35.9803 91.0435 35.9803H90.0573V39.1986ZM96.4872 36.4409C94.6773 37.4261 94.4086 40.4271 96.0107 41.7632C96.8588 42.4706 99.0405 42.8844 100.293 42.5755C101.171 42.3591 102.681 41.2529 102.681 40.8265C102.681 40.4682 100.407 40.5194 100.117 40.8844C99.7801 41.308 98.2061 41.2694 97.6317 40.8231C96.5208 39.96 97.1129 39.6584 99.9198 39.6584C102.617 39.6584 102.681 39.64 102.681 38.8768C102.681 37.8773 101.714 36.4167 100.888 36.1706C99.7316 35.8258 97.3488 35.972 96.4872 36.4409ZM103.894 36.7879C103.444 37.2321 103.076 37.7531 103.076 37.9456C103.076 38.7943 104.358 39.6155 106.226 39.9637C108.243 40.3398 108.838 40.9933 107.471 41.3304C106.631 41.5376 105.443 41.2572 105.443 40.8516C105.443 40.7011 104.91 40.5779 104.259 40.5779C102.854 40.5779 102.711 41.1462 103.906 41.9863C104.51 42.4112 105.326 42.5703 106.9 42.5703C108.697 42.5703 109.191 42.448 109.817 41.8466C111.44 40.2895 110.523 39.1425 107.094 38.44C105.225 38.0575 105.043 37.4199 106.758 37.2624C107.439 37.1999 107.899 37.3356 108.052 37.6455C108.408 38.3671 110.177 38.2708 110.177 37.5303C110.177 36.6331 108.656 35.9803 106.567 35.9803C105.032 35.9803 104.57 36.1197 103.894 36.7879ZM111.784 36.7879C111.334 37.2321 110.966 37.7531 110.966 37.9456C110.966 38.7943 112.248 39.6155 114.116 39.9637C116.133 40.3398 116.728 40.9933 115.361 41.3304C114.521 41.5376 113.333 41.2572 113.333 40.8516C113.333 40.7011 112.8 40.5779 112.149 40.5779C110.744 40.5779 110.601 41.1462 111.796 41.9863C112.4 42.4112 113.216 42.5703 114.79 42.5703C116.587 42.5703 117.081 42.448 117.707 41.8466C119.33 40.2895 118.413 39.1425 114.984 38.44C113.115 38.0575 112.933 37.4199 114.648 37.2624C115.329 37.1999 115.789 37.3356 115.942 37.6455C116.298 38.3671 118.067 38.2708 118.067 37.5303C118.067 36.6331 116.546 35.9803 114.457 35.9803C112.922 35.9803 112.46 36.1197 111.784 36.7879ZM32.2348 37.6878C32.9655 38.2558 33.0605 40.2953 32.3812 40.8231C31.5914 41.4368 30.1578 41.2461 29.4757 40.4372C27.9833 38.6674 30.398 36.261 32.2348 37.6878ZM64.5875 37.6909C65.4424 38.3551 65.0183 38.7389 63.4284 38.7389C62.6947 38.7389 61.9932 38.612 61.8702 38.4572C61.5897 38.1044 62.7089 37.2063 63.4284 37.2063C63.7227 37.2063 64.2443 37.4242 64.5875 37.6909ZM73.4133 38.9893C73.5762 40.2518 72.8787 41.1909 71.7781 41.1909C70.4955 41.1909 69.9377 40.6202 69.9377 39.3081C69.9377 37.0012 73.119 36.7094 73.4133 38.9893ZM99.8409 37.5741C100.777 38.3015 100.362 38.7389 98.7363 38.7389C97.0459 38.7389 96.7886 38.4566 97.778 37.6878C98.5193 37.1119 99.1979 37.0745 99.8409 37.5741ZM51.5397 41.106C50.5511 41.6679 49.6457 41.4723 49.497 40.6653C49.3984 40.1289 49.6383 39.9385 50.6805 39.7258C51.8242 39.4929 52.0049 39.537 52.124 40.078C52.1997 40.4222 51.9402 40.8786 51.5397 41.106Z" fill="white"/>
</svg>

<svg width="119" height="43" fill="none" xmlns="http://www.w3.org/2000/svg"><path fill-rule="evenodd" clip-rule="evenodd" d="M44.492 12.15c-5.424 6.27-9.921 11.506-9.993 11.638-.073.13 1.741.238 4.03.238h4.164l1.388-1.686 1.388-1.685H53.4l-.115-2.529-.115-2.529-1.64-.153-1.642-.153 2.036-2.675c1.12-1.47 2.135-2.677 2.258-2.682.121-.004.215.579.206 1.296-.008.716.025 3.888.074 7.05l.09 5.746h7.298l-.108-11.647L61.635.73l-3.64.011-3.64.011-9.863 11.398Zm18.74 4.484v11.683h7.298l-.11-9.041-.11-9.043h2.158c1.71 0 2.389.153 3.258.734 2.44 1.63.82 4.784-2.457 4.784H71.91v4.904h3.473c3.147 0 3.642-.083 5.259-.88 4.125-2.032 5.112-7.908 1.906-11.347-.756-.811-1.988-1.534-3.779-2.22-2.622-1.002-2.743-1.017-9.098-1.137l-6.44-.12v11.683ZM3.873 34.354c-.155.305-1.058 2.243-2.006 4.308L.145 42.417h1.277c1.057 0 1.355-.159 1.724-.92.409-.84.604-.92 2.29-.92 1.687 0 1.883.08 2.291.92.37.762.667.92 1.728.92h1.28l-1.907-4.215-1.908-4.214-1.382-.093c-1.036-.07-1.452.046-1.664.46Zm40.421.247c0 .613.197.766.986.766.79 0 .987-.153.987-.766s-.198-.766-.987-.766c-.789 0-.986.153-.986.766Zm29.193.624c0 1.28-.06 1.365-.763 1.072-.866-.36-2.4-.413-3.393-.117-.368.11-1 .765-1.404 1.456-.566.967-.736 1.094-.743.553-.005-.388-.445-1.042-.977-1.456-1.207-.938-4-1.047-5.332-.209-1.61 1.013-1.716 3.986-.19 5.297 1.42 1.219 5.18 1.007 6.11-.345.564-.818.491-.898-.803-.898-.651 0-1.184.138-1.184.306 0 .578-2.319.336-2.747-.286-.225-.326-.409-.67-.409-.766 0-.095 1.287-.169 2.86-.163l2.86.012.79 1.291c1 1.638 2.485 2.127 4.174 1.374.633-.282 1.151-.382 1.151-.221 0 .16.444.292.987.292h.986v-8.582h-.986c-.907 0-.987.111-.987 1.39Zm7.101 2.9v4.292h1.184c1.157 0 1.183-.034 1.183-1.533v-1.532h1.757c.966 0 2.189-.153 2.718-.34 1.978-.7 2.466-3.184.869-4.425-.877-.681-1.286-.752-4.34-.752h-3.37v4.29ZM56 34.346c-.145.113-.263.527-.263.92s-.178.715-.395.715c-.217 0-.394.276-.394.613 0 .337.177.613.394.613.223 0 .395.875.395 2.013 0 1.107.172 2.263.384 2.57.433.63 2 1.028 2.938.748.88-.262.774-1.066-.166-1.257-.686-.14-.79-.418-.79-2.117 0-1.752.083-1.957.79-1.957.458 0 .789-.204.789-.488 0-.269-.355-.56-.79-.649-.558-.114-.788-.418-.788-1.044 0-.722-.17-.884-.92-.884-.507 0-1.04.092-1.184.205Zm30.834 1.882c.19 1.044-.618 1.592-2.347 1.592-1.525 0-1.53-.003-1.53-1.243v-1.242l1.874.093c1.614.08 1.892.192 2.003.8ZM6.18 37.597c.301.78.45 1.492.33 1.585-.324.252-1.986.206-2.185-.06-.209-.28.892-3.262 1.135-3.073.094.074.418.77.72 1.549Zm5.766-1.004c-.973.756-1.017 1.89-.099 2.535.38.267 1.534.649 2.565.85 1.957.383 2.459 1.027 1.065 1.371-.48.118-1.21-.006-1.798-.305-.544-.277-1.454-.46-2.023-.408l-1.033.095 1.022.92c.914.822 1.26.92 3.282.92 1.987 0 2.354-.1 3.043-.816l.783-.815.902.816c.78.704 1.206.814 3.14.814 1.877 0 2.361-.117 2.993-.723 1.512-1.45.669-2.68-2.23-3.251-2.283-.45-2.98-1.39-1.031-1.39.676 0 1.265.194 1.397.46.125.253.676.46 1.226.46 1.22 0 1.313-.675.21-1.533-1.15-.893-4.409-.86-5.509.058-1.688 1.409-.733 2.705 2.45 3.327 1.047.204 1.875.544 1.875.769 0 .66-1.527.847-2.57.316-.524-.267-1.375-.485-1.89-.485-.611 0-1.09-.26-1.376-.75-.3-.51-.983-.864-2.135-1.108a451.44 451.44 0 0 1-2.188-.466c-.27-.06-.493-.32-.493-.578 0-.614 1.714-.621 2.367-.01.27.253.913.46 1.429.46 1.16 0 1.228-.694.149-1.533-.579-.45-1.315-.613-2.762-.613-1.446 0-2.182.164-2.761.613Zm16.144.283c-.974.757-1.153 1.14-1.153 2.466 0 1.251.193 1.72.952 2.31 1.26.979 2.724 1.231 4.605.794 1.83-.426 2.728-1.548 2.728-3.409 0-1.852-1.632-3.057-4.143-3.057-1.503 0-2.045.163-2.989.896Zm9.363-.548c-.885.4-1.837 2.083-1.835 3.244.002 1.412 1.34 2.783 2.945 3.017 2.226.324 4.549-.692 4.549-1.99 0-.494-1.807-.393-2.367.132-.592.554-1.64.596-2.288.092-.68-.528-.585-2.567.146-3.135.812-.631 1.19-.608 2.142.131 1.034.804 2.367.811 2.367.012 0-1.002-1.536-1.852-3.33-1.842-.88.006-1.93.158-2.33.339Zm6.842 2.87v3.219H46.268V35.98H44.295V39.2Zm3.945-2.605c-.434.337-.789.82-.789 1.073 0 .605 1.462.594 2.247-.016.769-.597 2.24-.46 2.408.224.098.4-.285.563-1.725.73-2.197.257-3.324 1.024-3.324 2.263 0 .992 1.193 1.857 2.564 1.857.446 0 1.205-.215 1.687-.478.492-.267.877-.334.877-.153 0 .178.628.324 1.395.324 1.256 0 1.354-.059.986-.593-.224-.326-.408-1.631-.408-2.9 0-2.667-.313-2.944-3.328-2.944-1.275 0-2.031.18-2.59.613ZM90.057 39.2v3.218h2.367v-2.172c0-2.132.022-2.179 1.184-2.52.838-.245 1.183-.55 1.183-1.046 0-.838-.988-.931-2.04-.192-.671.473-.721.473-.721 0 0-.336-.332-.507-.987-.507h-.986V39.2Zm6.43-2.758c-1.81.985-2.078 3.986-.476 5.322.848.708 3.03 1.121 4.282.813.878-.217 2.388-1.323 2.388-1.75 0-.358-2.274-.307-2.564.058-.337.424-1.91.385-2.485-.06-1.111-.864-.52-1.166 2.288-1.166 2.697 0 2.761-.018 2.761-.781 0-1-.967-2.46-1.793-2.706-1.156-.345-3.54-.199-4.4.27Zm7.407.347c-.45.444-.818.965-.818 1.158 0 .848 1.282 1.67 3.15 2.018 2.017.376 2.612 1.03 1.245 1.366-.84.208-2.028-.073-2.028-.478 0-.15-.533-.274-1.184-.274-1.405 0-1.548.568-.353 1.408.604.425 1.42.584 2.994.584 1.797 0 2.291-.122 2.917-.723 1.623-1.558.706-2.705-2.723-3.407-1.869-.383-2.051-1.02-.336-1.178.681-.062 1.141.074 1.294.383.356.722 2.125.626 2.125-.115 0-.897-1.521-1.55-3.61-1.55-1.535 0-1.997.14-2.673.808Zm7.89 0c-.45.444-.818.965-.818 1.158 0 .848 1.282 1.67 3.15 2.018 2.017.376 2.612 1.03 1.245 1.366-.84.208-2.028-.073-2.028-.478 0-.15-.533-.274-1.184-.274-1.405 0-1.548.568-.353 1.408.604.425 1.42.584 2.994.584 1.797 0 2.291-.122 2.917-.723 1.623-1.558.706-2.705-2.723-3.407-1.869-.383-2.051-1.02-.336-1.178.681-.062 1.141.074 1.294.383.356.722 2.125.626 2.125-.115 0-.897-1.521-1.55-3.61-1.55-1.535 0-1.997.14-2.673.808Zm-79.55.9c.731.568.826 2.607.147 3.135-.79.614-2.223.423-2.905-.386-1.493-1.77.922-4.176 2.759-2.75Zm32.354.003c.854.664.43 1.048-1.16 1.048-.733 0-1.435-.127-1.558-.282-.28-.353.839-1.25 1.558-1.25.295 0 .816.217 1.16.484Zm8.825 1.298c.163 1.263-.534 2.202-1.635 2.202-1.282 0-1.84-.57-1.84-1.883 0-2.307 3.181-2.599 3.475-.319Zm26.428-1.415c.936.727.521 1.165-1.105 1.165-1.69 0-1.947-.282-.958-1.051.741-.576 1.42-.614 2.063-.114ZM51.54 41.106c-.989.562-1.894.366-2.043-.44-.099-.537.141-.727 1.184-.94 1.143-.233 1.324-.189 1.443.352.076.344-.184.8-.584 1.028Z" fill="#fff"/></svg>
